public/illustrations/_mask.svg

<svg width="235" height="129" viewBox="0 0 235 129" fill="none" xmlns="http://www.w3.org/2000/svg">
<path d="M195.657 86.3543C193.845 88.4781 191.466 91.3661 188.804 94.1978C179.134 105.001 168.161 114.275 154.852 120.42C137.791 128.334 118.592 130.416 100.327 126.338C79.4146 121.793 59.7199 114.431 42.4889 101.334C40.5916 99.8472 38.1563 98.9836 35.7068 98.9836C23.7711 98.1766 13.4352 94.0566 5.95945 84.2447C4.07635 81.8943 2.53313 79.1899 1.61282 76.2874C-2.02596 62.7093 0.296015 50.3204 10.5894 40.0554C14.2565 36.3883 18.9997 33.925 24.1535 33.2454C28.1462 32.6507 32.3513 32.3958 36.3582 32.5233C39.643 32.6649 42.9703 31.6737 45.8586 30.0313C55.1042 24.9059 64.1091 19.4406 73.6521 15.094C84.2852 10.2092 95.2157 6.10323 106.16 1.98308C114.174 -1.06102 122.471 -0.0274179 130.867 1.30349C146.909 4.13521 161.025 12.0783 175.934 18.0249C179.134 19.4549 182.122 21.267 184.755 23.4616C186.143 24.5659 187.898 25.1608 189.654 25.0475C195.034 24.7077 200.485 24.7926 205.767 25.005C210.184 25.2032 214.347 26.0811 218.552 27.5394C227.741 30.8808 233.447 37.6343 234.594 47.4745C235.372 53.6476 233.461 59.6369 230.728 65.3428C228.265 70.3691 224.64 74.6167 220.067 77.7032C215.423 81.2004 210.099 83.7065 204.521 85.1648C201.561 85.6462 198.758 86.0143 195.714 86.1984L195.685 86.3401L195.657 86.3543ZM45.8445 41.5563C44.7542 58.3342 45.094 75.2112 46.8638 92.0599C51.6495 95.0615 56.3219 98.757 61.603 101.419C75.1529 108.555 89.6372 113.694 104.66 116.483C117.771 118.791 131.164 117.843 143.836 113.61C162.639 107.295 176.302 94.1697 188.153 79.1474C188.719 78.3829 189.144 77.6042 189.286 76.7547C189.427 75.9052 189.47 74.914 189.173 74.1494C188.167 69.2222 187.445 64.3518 186.44 59.4388C185.067 52.586 183.792 45.8888 182.419 39.036C181.244 33.5142 177.69 30.003 172.749 27.8367C168.742 26.1235 164.721 24.4101 160.714 22.6969C149.911 17.9113 139.108 13.1399 127.398 11.0728C120.871 9.78435 114.047 10.1527 107.76 12.3614C95.2157 16.6232 83.096 21.8194 71.231 27.9217C62.9765 32.3675 54.8353 36.9691 46.0852 41.7405L45.8303 41.5563H45.8445ZM199.749 75.4377C210.396 73.7245 221.256 66.0082 223.805 53.9451C225.504 45.903 221.851 38.937 213.766 36.6433C206.8 34.5478 199.537 34.1371 192.542 35.4964L199.707 75.5794L199.735 75.4377H199.749ZM34.829 42.9155C21.7605 42.0518 17.4281 46.172 12.8407 54.2849C10.6886 58.3625 9.85317 63.1056 10.4762 67.6647C10.8584 71.176 11.2974 74.4185 13.5061 77.406C18.7731 84.2304 26.0365 87.0905 33.9795 88.4922C34.4043 88.563 34.8716 88.3646 35.3105 88.2938C35.0981 73.1583 35.013 58.1926 34.829 42.9155Z" fill="#102185"/>
<path d="M85.3749 76.2913C80.1787 74.8046 74.9683 73.3038 69.942 71.7039C68.5686 71.3216 67.2235 70.7975 66.0767 70.0188C65.0148 69.5374 64.1794 68.5322 63.7688 67.5977C63.3865 66.5216 63.3016 65.3607 63.6556 64.1289C64.137 63.067 64.8591 62.1892 65.9635 61.6653C67.0678 61.1415 68.2572 60.9149 69.3474 61.2547C70.0412 61.3821 70.8764 61.5236 71.5277 61.9201C82.2741 65.3889 93.5728 67.3855 104.857 67.7961C121.749 68.1925 138.527 66.8333 154.752 62.0618C156.579 61.5238 158.391 60.9715 160.331 60.6034C160.94 60.4194 161.662 60.4053 162.384 60.3912C163.106 60.377 163.771 60.6318 164.423 61.0424C165.074 61.453 165.555 61.9627 166.037 62.4725C166.49 63.1238 166.674 63.7323 166.858 64.3411C167.042 64.95 167.056 65.6723 166.929 66.3661C166.801 67.0598 166.688 67.7534 166.164 68.2489C165.782 68.7586 165.272 69.2401 164.748 69.7215C164.253 70.0613 163.488 70.3586 162.908 70.4011C154.795 72.4257 146.668 74.4364 138.512 75.8806C122.499 78.6699 106.301 78.4008 90.0897 76.546L85.4881 75.7389L85.4174 76.1637L85.3891 76.3054L85.3749 76.2913Z" fill="#102185"/>
<path d="M73.0559 53.9916C71.102 53.6518 69.0914 52.8588 67.2083 52.0942C66.0048 51.5987 65.1552 50.7208 64.6172 49.6306C64.0792 48.5404 64.1784 47.2519 64.5323 46.0201C65.3677 43.7264 67.2648 42.7638 70.0966 42.9762C77.1901 43.5142 84.496 44.5051 91.5895 44.1794C104.191 43.6697 116.636 42.4098 129.124 40.8807C138.214 39.8896 147.049 37.8649 156.096 36.2933L156.847 36.1374C160.528 35.6419 163.147 37.1001 163.799 39.946C164.45 42.7919 162.227 45.5672 158.532 46.2044C153.307 47.2946 147.856 48.0591 142.66 49.0077C128.855 51.4572 114.895 53.1704 100.948 54.0199C91.6036 54.8128 82.1315 54.7278 72.7868 53.9491L73.07 53.9916H73.0559Z" fill="#102185"/>
<path d="M94.7328 99.7949L88.6021 98.7188C86.8182 98.2657 85.2324 97.4022 83.8307 96.4395C83.0661 95.8731 82.3582 95.0234 82.0892 94.1172C81.8202 93.2111 81.8484 92.2058 82.1599 91.2572C82.3298 90.2802 82.9244 89.3741 83.7457 88.8078C84.5669 88.2414 85.4731 87.9585 86.4783 88.001C87.6394 87.916 88.7579 88.1142 89.8765 88.3124C107.023 92.1919 124.07 90.8892 140.791 85.778C143.821 84.8718 146.978 84.1357 150.121 83.3994C151.311 83.1729 152.472 83.1018 153.562 83.4274C154.397 83.569 155.19 84.008 155.813 84.546C156.436 85.084 157.017 85.9052 157.172 86.6556C157.441 87.5618 157.442 88.4256 157.144 89.2326C157.003 90.068 156.436 90.8326 155.884 91.4556C155.02 92.3051 154.058 92.8573 152.982 93.2396C139.871 96.6801 126.774 100.843 113.111 100.871C106.923 100.928 100.821 100.432 94.6761 100.206L94.747 99.7807L94.7328 99.7949Z" fill="#102185"/>
</svg>

<svg xmlns="http://www.w3.org/2000/svg" width="235" height="129" fill="none" viewBox="0 0 235 129"><path fill="#102185" d="M195.657 86.354c-1.812 2.124-4.191 5.012-6.853 7.844-9.67 10.803-20.643 20.077-33.952 26.222-17.061 7.914-36.26 9.996-54.525 5.918-20.912-4.545-40.607-11.907-57.838-25.004a11.13 11.13 0 0 0-6.782-2.35c-11.936-.807-22.272-4.927-29.748-14.74-1.883-2.35-3.426-5.054-4.346-7.957C-2.026 62.71.296 50.32 10.589 40.055c3.668-3.667 8.41-6.13 13.565-6.81a69 69 0 0 1 12.204-.722c3.285.142 6.612-.85 9.5-2.492 9.246-5.125 18.251-10.59 27.794-14.937 10.633-4.885 21.564-8.99 32.508-13.11 8.014-3.045 16.311-2.011 24.707-.68 16.042 2.831 30.158 10.774 45.067 16.72 3.2 1.43 6.188 3.243 8.821 5.438 1.388 1.104 3.143 1.699 4.899 1.585 5.38-.34 10.831-.254 16.113-.042 4.417.198 8.58 1.076 12.785 2.534 9.189 3.342 14.895 10.095 16.042 19.935.778 6.174-1.133 12.163-3.866 17.869-2.463 5.026-6.088 9.274-10.661 12.36-4.644 3.497-9.968 6.004-15.546 7.462-2.96.481-5.763.85-8.807 1.033l-.029.142zM45.845 41.556a298 298 0 0 0 1.019 50.504c4.786 3.001 9.458 6.697 14.739 9.359 13.55 7.136 28.034 12.275 43.057 15.064 13.111 2.308 26.504 1.36 39.176-2.873 18.803-6.315 32.466-19.44 44.317-34.463.566-.764.991-1.543 1.133-2.392.141-.85.184-1.841-.113-2.606-1.006-4.927-1.728-9.797-2.733-14.71-1.373-6.853-2.648-13.55-4.021-20.403-1.175-5.522-4.729-9.033-9.67-11.2-4.007-1.712-8.028-3.426-12.035-5.14-10.803-4.785-21.606-9.556-33.316-11.623-6.527-1.289-13.351-.92-19.638 1.288-12.544 4.262-24.664 9.458-36.529 15.56-8.254 4.447-16.396 9.048-25.146 13.82l-.255-.185zm153.904 33.882c10.647-1.713 21.507-9.43 24.056-21.493 1.699-8.042-1.954-15.008-10.039-17.302-6.966-2.095-14.229-2.506-21.224-1.147l7.165 40.083.028-.141zM34.829 42.916c-13.068-.864-17.4 3.256-21.988 11.369a22.38 22.38 0 0 0-2.365 13.38c.382 3.511.821 6.753 3.03 9.741 5.267 6.824 12.53 9.685 20.474 11.086.424.071.892-.127 1.33-.198-.212-15.136-.297-30.101-.481-45.378"/><path fill="#102185" d="M85.375 76.291c-5.196-1.486-10.407-2.987-15.433-4.587-1.373-.382-2.718-.906-3.865-1.685-1.062-.482-1.898-1.487-2.308-2.421a5.55 5.55 0 0 1-.113-3.47c.481-1.061 1.203-1.939 2.307-2.463 1.105-.523 2.294-.75 3.384-.41.694.127 1.53.269 2.18.665a123.5 123.5 0 0 0 33.33 5.876c16.892.396 33.67-.963 49.895-5.734 1.827-.538 3.639-1.09 5.579-1.459.609-.184 1.331-.198 2.053-.212s1.387.24 2.039.651c.651.411 1.132.92 1.614 1.43.453.652.637 1.26.821 1.87.184.608.198 1.33.071 2.024-.128.694-.241 1.387-.765 1.883-.382.51-.892.991-1.416 1.473-.495.34-1.26.637-1.84.68-8.113 2.024-16.24 4.034-24.396 5.479-16.013 2.789-32.211 2.52-48.422.665l-4.602-.807-.07.425-.029.141zM73.056 53.992c-1.954-.34-3.965-1.133-5.848-1.898-1.203-.495-2.053-1.373-2.59-2.463-.539-1.09-.44-2.38-.086-3.61.836-2.295 2.733-3.257 5.565-3.045 7.093.538 14.399 1.53 21.493 1.203 12.601-.51 25.046-1.77 37.534-3.298 9.09-.991 17.925-3.016 26.972-4.588l.751-.156c3.681-.495 6.3.963 6.952 3.809.651 2.846-1.572 5.621-5.267 6.258-5.225 1.09-10.676 1.855-15.872 2.804-13.805 2.45-27.765 4.162-41.712 5.012-9.344.793-18.816.708-28.161-.07l.283.042zM94.733 99.795l-6.13-1.076c-1.785-.453-3.37-1.317-4.772-2.28-.765-.566-1.473-1.416-1.742-2.322s-.24-1.911.07-2.86a3.83 3.83 0 0 1 1.587-2.45c.82-.566 1.727-.849 2.732-.806 1.161-.085 2.28.113 3.398.311 17.147 3.88 34.194 2.577 50.915-2.534 3.03-.906 6.187-1.642 9.33-2.379 1.19-.226 2.351-.297 3.441.028.835.142 1.628.581 2.251 1.119s1.204 1.36 1.359 2.11c.269.906.27 1.77-.028 2.577-.141.835-.708 1.6-1.26 2.223-.864.85-1.826 1.401-2.902 1.784-13.111 3.44-26.208 7.603-39.871 7.631-6.188.057-12.29-.439-18.435-.665l.071-.425z"/></svg>
